azure-patterns/svg-dollar-circle.svg

<svg xmlns="http://www.w3.org/2000/svg" viewBox="0 0 48 48">
                                
                            
  <path fill-rule="evenodd" clip-rule="evenodd" d="M26.6705 28.0069C26.6705 27.1987 26.0745 26.5315 24.8827 26.0068V29.7946C26.0745 29.603 26.6705 29.0071 26.6705 28.0069M23.0577 21.7813V17.8183C21.8993 18.0268 21.3198 18.631 21.3198 19.6312C21.3198 20.5062 21.8993 21.2229 23.0577 21.7813M29.9952 27.8317C29.9952 29.2152 29.5598 30.3279 28.689 31.1699C27.8181 32.0118 26.549 32.5283 24.882 32.7199V35.4325H23.0571V32.7949C21.3402 32.7784 19.765 32.3947 18.3317 31.6447V28.182C18.7817 28.5488 19.5006 28.9051 20.4881 29.2508C21.4756 29.5966 22.3321 29.7946 23.0571 29.8445V25.2942C21.2153 24.6109 19.9109 23.8627 19.1444 23.05C18.3774 22.2373 17.9941 21.1689 17.9941 19.8435C17.9941 18.5185 18.4648 17.3994 19.4069 16.487C20.3486 15.5745 21.5652 15.0431 23.0571 14.8931V12.5679H24.882V14.8428C26.6409 14.9265 27.9535 15.21 28.8198 15.693V19.0687C27.6617 18.3685 26.3491 17.9353 24.882 17.7685V22.5062C26.7242 23.1731 28.0368 23.9231 28.8198 24.7564C29.6033 25.5901 29.9952 26.6151 29.9952 27.8317" fill="#50E6FF"></path>
  <path fill-rule="evenodd" clip-rule="evenodd" d="M23.9954 47.9956C10.7642 47.9956 0 37.2314 0 24.0006C0 10.7691 10.7642 0.00488281 23.9954 0.00488281C32.7299 0.00488281 40.7826 4.75843 45.0103 12.4106L46.0991 14.3799L42.1601 16.5566L41.0714 14.5869C37.6353 8.36849 31.0921 4.50528 23.9954 4.50528C13.2458 4.50528 4.5004 13.2507 4.5004 24.0006C4.5004 34.7502 13.2458 43.4952 23.9954 43.4952C34.7449 43.4952 43.4899 34.7502 43.4899 24.0006V24.0002H47.9903V24.0006C47.9903 37.2314 37.2261 47.9956 23.9954 47.9956" fill="#0078D4"></path>
  <path fill-rule="evenodd" clip-rule="evenodd" d="M34.4982 18.0527L34.4922 13.5523L43.4986 13.541L43.4949 4.53838L47.9952 4.53613L48.0009 18.0354L34.4982 18.0527Z" fill="#0078D4"></path>
</svg>

<svg xmlns="http://www.w3.org/2000/svg" viewBox="0 0 48 48"><path fill-rule="evenodd" clip-rule="evenodd" d="M26.67 28.007c0-.808-.596-1.476-1.787-2v3.788c1.192-.192 1.788-.788 1.788-1.788m-3.613-6.226v-3.963c-1.159.209-1.738.813-1.738 1.813 0 .875.58 1.592 1.738 2.15m6.937 6.05c0 1.384-.435 2.497-1.306 3.339-.87.842-2.14 1.358-3.807 1.55v2.712h-1.825v-2.637c-1.717-.017-3.292-.4-4.725-1.15v-3.463c.45.367 1.169.723 2.156 1.069.988.346 1.844.544 2.57.593v-4.55c-1.843-.683-3.147-1.431-3.914-2.244-.767-.813-1.15-1.881-1.15-3.207 0-1.325.47-2.444 1.413-3.356.942-.912 2.158-1.444 3.65-1.594v-2.325h1.825v2.275c1.759.084 3.071.367 3.938.85v3.376c-1.158-.7-2.47-1.134-3.938-1.3v4.737c1.842.667 3.155 1.417 3.938 2.25.783.834 1.175 1.86 1.175 3.076" fill="#50E6FF"/><path fill-rule="evenodd" clip-rule="evenodd" d="M23.995 47.996C10.765 47.996 0 37.23 0 24 0 10.769 10.764.005 23.995.005A24.018 24.018 0 0 1 45.01 12.41l1.09 1.969-3.94 2.177-1.089-1.97A19.518 19.518 0 0 0 23.995 4.505C13.245 4.505 4.5 13.251 4.5 24.001c0 10.75 8.746 19.494 19.495 19.494 10.75 0 19.495-8.745 19.495-19.494h4.5c0 13.23-10.764 23.995-23.995 23.995" fill="#0078D4"/><path fill-rule="evenodd" clip-rule="evenodd" d="M34.498 18.053l-.006-4.5 9.007-.012-.004-9.003 4.5-.002.006 13.5-13.503.017z" fill="#0078D4"/></svg>
